images/50860689.svg

<?xml version="1.0" encoding="UTF-8"?>
<svg xmlns="http://www.w3.org/2000/svg" xmlns:xlink="http://www.w3.org/1999/xlink" width="300pt" height="300pt" viewBox="0 0 300 300" version="1.1">
<defs>
<g>
<symbol overflow="visible" id="glyph0-0">
<path style="stroke:none;" d="M 0.453125 1.59375 L 0.453125 -6.34375 L 4.953125 -6.34375 L 4.953125 1.59375 Z M 0.953125 1.09375 L 4.453125 1.09375 L 4.453125 -5.84375 L 0.953125 -5.84375 Z M 0.953125 1.09375 "/>
</symbol>
<symbol overflow="visible" id="glyph0-1">
<path style="stroke:none;" d="M 0.890625 -6.5625 L 4.65625 -6.5625 L 4.65625 -5.8125 L 1.765625 -5.8125 L 1.765625 -3.875 L 4.375 -3.875 L 4.375 -3.140625 L 1.765625 -3.140625 L 1.765625 0 L 0.890625 0 Z M 0.890625 -6.5625 "/>
</symbol>
<symbol overflow="visible" id="glyph0-2">
<path style="stroke:none;" d="M 0.890625 -6.5625 L 2.078125 -6.5625 L 4.984375 -1.078125 L 4.984375 -6.5625 L 5.84375 -6.5625 L 5.84375 0 L 4.65625 0 L 1.75 -5.484375 L 1.75 0 L 0.890625 0 Z M 0.890625 -6.5625 "/>
</symbol>
<symbol overflow="visible" id="glyph0-3">
<path style="stroke:none;" d="M 0.890625 -6.5625 L 1.765625 -6.5625 L 1.765625 -3.875 L 5 -3.875 L 5 -6.5625 L 5.890625 -6.5625 L 5.890625 0 L 5 0 L 5 -3.125 L 1.765625 -3.125 L 1.765625 0 L 0.890625 0 Z M 0.890625 -6.5625 "/>
</symbol>
</g>
</defs>
<g id="surface25085">
<rect x="0" y="0" width="300" height="300" style="fill:rgb(100%,100%,100%);fill-opacity:1;stroke:none;"/>
<path style="fill:none;stroke-width:1.2;stroke-linecap:butt;stroke-linejoin:miter;stroke:rgb(20%,80%,80%);stroke-opacity:1;stroke-miterlimit:10;" d="M 100.5625 217.800781 L 89.675781 214.300781 "/>
<path style="fill:none;stroke-width:1.2;stroke-linecap:butt;stroke-linejoin:miter;stroke:rgb(0%,0%,0%);stroke-opacity:1;stroke-miterlimit:10;" d="M 89.675781 214.300781 L 78.789062 210.800781 "/>
<path style=" stroke:none;fill-rule:nonzero;fill:rgb(100%,100%,100%);fill-opacity:1;" d="M 97.5625 212.300781 L 103.5625 212.300781 L 103.5625 223.300781 L 97.5625 223.300781 Z M 97.5625 212.300781 "/>
<g style="fill:rgb(20%,80%,80%);fill-opacity:1;">
  <use xlink:href="#glyph0-1" x="97.5625" y="220.963867"/>
</g>
<path style="fill:none;stroke-width:1.2;stroke-linecap:butt;stroke-linejoin:miter;stroke:rgb(0%,0%,0%);stroke-opacity:1;stroke-miterlimit:10;" d="M 78.789062 210.800781 L 61.84375 226.15625 "/>
<path style="fill:none;stroke-width:1.2;stroke-linecap:butt;stroke-linejoin:miter;stroke:rgb(0%,0%,0%);stroke-opacity:1;stroke-miterlimit:10;" d="M 73.484375 208.347656 L 59.925781 220.632812 "/>
<path style="fill:none;stroke-width:1.2;stroke-linecap:butt;stroke-linejoin:miter;stroke:rgb(0%,0%,0%);stroke-opacity:1;stroke-miterlimit:10;" d="M 73.96875 188.449219 L 78.789062 210.800781 "/>
<path style="fill:none;stroke-width:1.2;stroke-linecap:butt;stroke-linejoin:miter;stroke:rgb(0%,0%,0%);stroke-opacity:1;stroke-miterlimit:10;" d="M 61.84375 226.15625 L 40.074219 219.15625 "/>
<path style="fill:none;stroke-width:1.2;stroke-linecap:butt;stroke-linejoin:miter;stroke:rgb(0%,0%,0%);stroke-opacity:1;stroke-miterlimit:10;" d="M 40.074219 219.15625 L 35.25 196.800781 "/>
<path style="fill:none;stroke-width:1.2;stroke-linecap:butt;stroke-linejoin:miter;stroke:rgb(0%,0%,0%);stroke-opacity:1;stroke-miterlimit:10;" d="M 44.851562 215.785156 L 40.992188 197.902344 "/>
<path style="fill:none;stroke-width:1.2;stroke-linecap:butt;stroke-linejoin:miter;stroke:rgb(0%,0%,0%);stroke-opacity:1;stroke-miterlimit:10;" d="M 35.25 196.800781 L 52.199219 181.445312 "/>
<path style="fill:none;stroke-width:1.2;stroke-linecap:butt;stroke-linejoin:miter;stroke:rgb(0%,0%,0%);stroke-opacity:1;stroke-miterlimit:10;" d="M 52.199219 181.445312 L 49.785156 170.269531 "/>
<path style="fill:none;stroke-width:1.2;stroke-linecap:butt;stroke-linejoin:miter;stroke:rgb(20%,80%,80%);stroke-opacity:1;stroke-miterlimit:10;" d="M 49.785156 170.269531 L 47.375 159.09375 "/>
<path style="fill:none;stroke-width:1.2;stroke-linecap:butt;stroke-linejoin:miter;stroke:rgb(0%,0%,0%);stroke-opacity:1;stroke-miterlimit:10;" d="M 52.199219 181.445312 L 73.96875 188.449219 "/>
<path style="fill:none;stroke-width:1.2;stroke-linecap:butt;stroke-linejoin:miter;stroke:rgb(0%,0%,0%);stroke-opacity:1;stroke-miterlimit:10;" d="M 52.726562 187.269531 L 70.144531 192.871094 "/>
<path style=" stroke:none;fill-rule:nonzero;fill:rgb(100%,100%,100%);fill-opacity:1;" d="M 44.375 153.59375 L 50.375 153.59375 L 50.375 164.59375 L 44.375 164.59375 Z M 44.375 153.59375 "/>
<g style="fill:rgb(20%,80%,80%);fill-opacity:1;">
  <use xlink:href="#glyph0-1" x="44.375" y="162.256836"/>
</g>
<path style="fill:none;stroke-width:1.2;stroke-linecap:butt;stroke-linejoin:miter;stroke:rgb(0%,0%,0%);stroke-opacity:1;stroke-miterlimit:10;" d="M 73.96875 188.449219 L 90.914062 173.09375 "/>
<path style="fill:none;stroke-width:1.2;stroke-linecap:butt;stroke-linejoin:miter;stroke:rgb(0%,0%,0%);stroke-opacity:1;stroke-miterlimit:10;" d="M 90.914062 173.09375 L 89.6875 161.726562 "/>
<path style="fill:none;stroke-width:1.2;stroke-linecap:butt;stroke-linejoin:miter;stroke:rgb(0%,0%,100%);stroke-opacity:1;stroke-miterlimit:10;" d="M 89.6875 161.726562 L 88.457031 150.359375 "/>
<path style="fill:none;stroke-width:1.2;stroke-linecap:butt;stroke-linejoin:miter;stroke:rgb(0%,0%,100%);stroke-opacity:1;stroke-miterlimit:10;" d="M 113.296875 177.78125 L 102.105469 175.4375 "/>
<path style="fill:none;stroke-width:1.2;stroke-linecap:butt;stroke-linejoin:miter;stroke:rgb(0%,0%,0%);stroke-opacity:1;stroke-miterlimit:10;" d="M 102.105469 175.4375 L 90.914062 173.09375 "/>
<path style="fill:none;stroke-width:1.2;stroke-linecap:butt;stroke-linejoin:miter;stroke:rgb(0%,0%,100%);stroke-opacity:1;stroke-miterlimit:10;" d="M 112.164062 172.046875 L 103.210938 170.171875 "/>
<path style="fill:none;stroke-width:1.2;stroke-linecap:butt;stroke-linejoin:miter;stroke:rgb(0%,0%,0%);stroke-opacity:1;stroke-miterlimit:10;" d="M 103.210938 170.171875 L 94.257812 168.296875 "/>
<path style="fill:none;stroke-width:1.2;stroke-linecap:butt;stroke-linejoin:miter;stroke:rgb(0%,0%,100%);stroke-opacity:1;stroke-miterlimit:10;" d="M 88.457031 150.359375 L 98.886719 145.675781 "/>
<path style="fill:none;stroke-width:1.2;stroke-linecap:butt;stroke-linejoin:miter;stroke:rgb(0%,0%,0%);stroke-opacity:1;stroke-miterlimit:10;" d="M 98.886719 145.675781 L 109.320312 140.992188 "/>
<path style=" stroke:none;fill-rule:nonzero;fill:rgb(100%,100%,100%);fill-opacity:1;" d="M 81.457031 144.859375 L 95.457031 144.859375 L 95.457031 155.859375 L 81.457031 155.859375 Z M 81.457031 144.859375 "/>
<g style="fill:rgb(0%,0%,100%);fill-opacity:1;">
  <use xlink:href="#glyph0-2" x="81.457031" y="153.522461"/>
  <use xlink:href="#glyph0-3" x="88.43457" y="153.522461"/>
</g>
<path style="fill:none;stroke-width:1.2;stroke-linecap:butt;stroke-linejoin:miter;stroke:rgb(0%,0%,0%);stroke-opacity:1;stroke-miterlimit:10;" d="M 109.320312 140.992188 L 124.671875 157.941406 "/>
<path style="fill:none;stroke-width:1.2;stroke-linecap:butt;stroke-linejoin:miter;stroke:rgb(0%,0%,0%);stroke-opacity:1;stroke-miterlimit:10;" d="M 106.867188 146.300781 L 119.148438 159.859375 "/>
<path style="fill:none;stroke-width:1.2;stroke-linecap:butt;stroke-linejoin:miter;stroke:rgb(0%,0%,0%);stroke-opacity:1;stroke-miterlimit:10;" d="M 109.320312 140.992188 L 114.003906 118.609375 "/>
<path style="fill:none;stroke-width:1.2;stroke-linecap:butt;stroke-linejoin:miter;stroke:rgb(0%,0%,0%);stroke-opacity:1;stroke-miterlimit:10;" d="M 124.671875 157.941406 L 118.984375 167.859375 "/>
<path style="fill:none;stroke-width:1.2;stroke-linecap:butt;stroke-linejoin:miter;stroke:rgb(0%,0%,100%);stroke-opacity:1;stroke-miterlimit:10;" d="M 118.984375 167.859375 L 113.296875 177.78125 "/>
<path style="fill:none;stroke-width:1.2;stroke-linecap:butt;stroke-linejoin:miter;stroke:rgb(0%,0%,0%);stroke-opacity:1;stroke-miterlimit:10;" d="M 124.671875 157.941406 L 147.40625 155.480469 "/>
<path style=" stroke:none;fill-rule:nonzero;fill:rgb(100%,100%,100%);fill-opacity:1;" d="M 110.296875 172.28125 L 117.296875 172.28125 L 117.296875 183.28125 L 110.296875 183.28125 Z M 110.296875 172.28125 "/>
<g style="fill:rgb(0%,0%,100%);fill-opacity:1;">
  <use xlink:href="#glyph0-2" x="110.296875" y="180.944336"/>
</g>
<path style="fill:none;stroke-width:1.2;stroke-linecap:butt;stroke-linejoin:miter;stroke:rgb(0%,0%,0%);stroke-opacity:1;stroke-miterlimit:10;" d="M 147.40625 155.480469 L 160.90625 173.941406 "/>
<path style="fill:none;stroke-width:1.2;stroke-linecap:butt;stroke-linejoin:miter;stroke:rgb(0%,0%,0%);stroke-opacity:1;stroke-miterlimit:10;" d="M 153.101562 154.152344 L 163.898438 168.917969 "/>
<path style="fill:none;stroke-width:1.2;stroke-linecap:butt;stroke-linejoin:miter;stroke:rgb(0%,0%,0%);stroke-opacity:1;stroke-miterlimit:10;" d="M 156.644531 134.5625 L 147.40625 155.480469 "/>
<path style="fill:none;stroke-width:1.2;stroke-linecap:butt;stroke-linejoin:miter;stroke:rgb(0%,0%,0%);stroke-opacity:1;stroke-miterlimit:10;" d="M 160.90625 173.941406 L 183.640625 171.480469 "/>
<path style="fill:none;stroke-width:1.2;stroke-linecap:butt;stroke-linejoin:miter;stroke:rgb(0%,0%,0%);stroke-opacity:1;stroke-miterlimit:10;" d="M 183.640625 171.480469 L 192.160156 179.105469 "/>
<path style="fill:none;stroke-width:1.2;stroke-linecap:butt;stroke-linejoin:miter;stroke:rgb(0%,0%,100%);stroke-opacity:1;stroke-miterlimit:10;" d="M 192.160156 179.105469 L 200.683594 186.730469 "/>
<path style="fill:none;stroke-width:1.2;stroke-linecap:butt;stroke-linejoin:miter;stroke:rgb(0%,0%,0%);stroke-opacity:1;stroke-miterlimit:10;" d="M 192.878906 150.5625 L 183.640625 171.480469 "/>
<path style="fill:none;stroke-width:1.2;stroke-linecap:butt;stroke-linejoin:miter;stroke:rgb(0%,0%,0%);stroke-opacity:1;stroke-miterlimit:10;" d="M 187.03125 150.480469 L 179.644531 167.214844 "/>
<path style="fill:none;stroke-width:1.2;stroke-linecap:butt;stroke-linejoin:miter;stroke:rgb(0%,0%,100%);stroke-opacity:1;stroke-miterlimit:10;" d="M 200.683594 186.730469 L 210.566406 180.984375 "/>
<path style="fill:none;stroke-width:1.2;stroke-linecap:butt;stroke-linejoin:miter;stroke:rgb(0%,0%,0%);stroke-opacity:1;stroke-miterlimit:10;" d="M 210.566406 180.984375 L 220.453125 175.238281 "/>
<path style=" stroke:none;fill-rule:nonzero;fill:rgb(100%,100%,100%);fill-opacity:1;" d="M 193.683594 181.230469 L 207.683594 181.230469 L 207.683594 192.230469 L 193.683594 192.230469 Z M 193.683594 181.230469 "/>
<g style="fill:rgb(0%,0%,100%);fill-opacity:1;">
  <use xlink:href="#glyph0-2" x="193.683594" y="189.893555"/>
  <use xlink:href="#glyph0-3" x="200.661133" y="189.893555"/>
</g>
<path style="fill:none;stroke-width:1.2;stroke-linecap:butt;stroke-linejoin:miter;stroke:rgb(0%,0%,0%);stroke-opacity:1;stroke-miterlimit:10;" d="M 220.453125 175.238281 L 218.039062 164.058594 "/>
<path style="fill:none;stroke-width:1.2;stroke-linecap:butt;stroke-linejoin:miter;stroke:rgb(0%,0%,100%);stroke-opacity:1;stroke-miterlimit:10;" d="M 218.039062 164.058594 L 215.628906 152.882812 "/>
<path style="fill:none;stroke-width:1.2;stroke-linecap:butt;stroke-linejoin:miter;stroke:rgb(0%,0%,0%);stroke-opacity:1;stroke-miterlimit:10;" d="M 214.710938 174.136719 L 212.78125 165.195312 "/>
<path style="fill:none;stroke-width:1.2;stroke-linecap:butt;stroke-linejoin:miter;stroke:rgb(0%,0%,100%);stroke-opacity:1;stroke-miterlimit:10;" d="M 212.78125 165.195312 L 210.851562 156.253906 "/>
<path style="fill:none;stroke-width:1.2;stroke-linecap:butt;stroke-linejoin:miter;stroke:rgb(0%,0%,0%);stroke-opacity:1;stroke-miterlimit:10;" d="M 220.453125 175.238281 L 230.910156 179.855469 "/>
<path style="fill:none;stroke-width:1.2;stroke-linecap:butt;stroke-linejoin:miter;stroke:rgb(0%,0%,100%);stroke-opacity:1;stroke-miterlimit:10;" d="M 230.910156 179.855469 L 241.371094 184.476562 "/>
<path style="fill:none;stroke-width:1.2;stroke-linecap:butt;stroke-linejoin:miter;stroke:rgb(0%,0%,100%);stroke-opacity:1;stroke-miterlimit:10;" d="M 215.628906 152.882812 L 204.253906 151.722656 "/>
<path style="fill:none;stroke-width:1.2;stroke-linecap:butt;stroke-linejoin:miter;stroke:rgb(0%,0%,0%);stroke-opacity:1;stroke-miterlimit:10;" d="M 204.253906 151.722656 L 192.878906 150.5625 "/>
<path style=" stroke:none;fill-rule:nonzero;fill:rgb(100%,100%,100%);fill-opacity:1;" d="M 212.628906 147.382812 L 219.628906 147.382812 L 219.628906 158.382812 L 212.628906 158.382812 Z M 212.628906 147.382812 "/>
<g style="fill:rgb(0%,0%,100%);fill-opacity:1;">
  <use xlink:href="#glyph0-2" x="212.628906" y="156.045898"/>
</g>
<path style="fill:none;stroke-width:1.2;stroke-linecap:butt;stroke-linejoin:miter;stroke:rgb(0%,0%,0%);stroke-opacity:1;stroke-miterlimit:10;" d="M 192.878906 150.5625 L 179.382812 132.101562 "/>
<path style="fill:none;stroke-width:1.2;stroke-linecap:butt;stroke-linejoin:miter;stroke:rgb(0%,0%,0%);stroke-opacity:1;stroke-miterlimit:10;" d="M 179.382812 132.101562 L 156.644531 134.5625 "/>
<path style="fill:none;stroke-width:1.2;stroke-linecap:butt;stroke-linejoin:miter;stroke:rgb(0%,0%,0%);stroke-opacity:1;stroke-miterlimit:10;" d="M 177.6875 137.699219 L 159.496094 139.664062 "/>
<path style="fill:none;stroke-width:1.2;stroke-linecap:butt;stroke-linejoin:miter;stroke:rgb(0%,0%,100%);stroke-opacity:1;stroke-miterlimit:10;" d="M 241.371094 184.476562 L 242.601562 195.84375 "/>
<path style="fill:none;stroke-width:1.2;stroke-linecap:butt;stroke-linejoin:miter;stroke:rgb(0%,0%,0%);stroke-opacity:1;stroke-miterlimit:10;" d="M 242.601562 195.84375 L 243.832031 207.210938 "/>
<path style=" stroke:none;fill-rule:nonzero;fill:rgb(100%,100%,100%);fill-opacity:1;" d="M 234.371094 178.976562 L 248.371094 178.976562 L 248.371094 189.976562 L 234.371094 189.976562 Z M 234.371094 178.976562 "/>
<g style="fill:rgb(0%,0%,100%);fill-opacity:1;">
  <use xlink:href="#glyph0-2" x="234.371094" y="187.639648"/>
  <use xlink:href="#glyph0-3" x="241.348633" y="187.639648"/>
</g>
<path style="fill:none;stroke-width:1.2;stroke-linecap:butt;stroke-linejoin:miter;stroke:rgb(0%,0%,0%);stroke-opacity:1;stroke-miterlimit:10;" d="M 243.832031 207.210938 L 264.75 216.449219 "/>
<path style="fill:none;stroke-width:1.2;stroke-linecap:butt;stroke-linejoin:miter;stroke:rgb(0%,0%,0%);stroke-opacity:1;stroke-miterlimit:10;" d="M 114.003906 118.609375 L 135.734375 111.476562 "/>
<path style="fill:none;stroke-width:1.2;stroke-linecap:butt;stroke-linejoin:miter;stroke:rgb(0%,0%,0%);stroke-opacity:1;stroke-miterlimit:10;" d="M 114.5 112.785156 L 131.882812 107.078125 "/>
<path style="fill:none;stroke-width:1.2;stroke-linecap:butt;stroke-linejoin:miter;stroke:rgb(0%,0%,0%);stroke-opacity:1;stroke-miterlimit:10;" d="M 96.964844 103.359375 L 114.003906 118.609375 "/>
<path style="fill:none;stroke-width:1.2;stroke-linecap:butt;stroke-linejoin:miter;stroke:rgb(0%,0%,0%);stroke-opacity:1;stroke-miterlimit:10;" d="M 135.734375 111.476562 L 140.417969 89.09375 "/>
<path style="fill:none;stroke-width:1.2;stroke-linecap:butt;stroke-linejoin:miter;stroke:rgb(0%,0%,0%);stroke-opacity:1;stroke-miterlimit:10;" d="M 140.417969 89.09375 L 123.378906 73.84375 "/>
<path style="fill:none;stroke-width:1.2;stroke-linecap:butt;stroke-linejoin:miter;stroke:rgb(0%,0%,0%);stroke-opacity:1;stroke-miterlimit:10;" d="M 135.125 91.578125 L 121.492188 79.378906 "/>
<path style="fill:none;stroke-width:1.2;stroke-linecap:butt;stroke-linejoin:miter;stroke:rgb(0%,0%,0%);stroke-opacity:1;stroke-miterlimit:10;" d="M 123.378906 73.84375 L 101.652344 80.976562 "/>
<path style="fill:none;stroke-width:1.2;stroke-linecap:butt;stroke-linejoin:miter;stroke:rgb(0%,0%,0%);stroke-opacity:1;stroke-miterlimit:10;" d="M 101.652344 80.976562 L 96.964844 103.359375 "/>
<path style="fill:none;stroke-width:1.2;stroke-linecap:butt;stroke-linejoin:miter;stroke:rgb(0%,0%,0%);stroke-opacity:1;stroke-miterlimit:10;" d="M 106.449219 84.320312 L 102.699219 102.226562 "/>
</g>
</svg>

<svg xmlns="http://www.w3.org/2000/svg" xmlns:xlink="http://www.w3.org/1999/xlink" width="300pt" height="300pt" viewBox="0 0 300 300"><defs><symbol overflow="visible"><path d="M.453 1.594v-7.938h4.5v7.938zm.5-.5h3.5v-6.938h-3.5zm0 0"/></symbol><symbol overflow="visible" id="a"><path d="M.89-6.563h3.766v.75h-2.89v1.938h2.61v.734h-2.61V0H.89zm0 0"/></symbol><symbol overflow="visible" id="b"><path d="M.89-6.563H2.08l2.906 5.485v-5.484h.86V0H4.656L1.75-5.484V0H.89zm0 0"/></symbol><symbol overflow="visible" id="c"><path d="M.89-6.563h.876v2.688H5v-2.688h.89V0H5v-3.125H1.766V0H.89zm0 0"/></symbol></defs><g><path fill="#fff" d="M0 0h300v300H0z"/><path d="M100.563 217.8l-10.887-3.5" stroke-width="1.2" stroke="#3cc" stroke-miterlimit="10" fill="none"/><path d="M89.676 214.3l-10.887-3.5" stroke-width="1.2" stroke="#000" stroke-miterlimit="10" fill="none"/><path d="M97.563 212.3h6v11h-6zm0 0" fill="#fff"/><use xlink:href="#a" x="97.563" y="220.964" fill="#3cc"/><path d="M78.79 210.8l-16.946 15.356M73.484 208.348l-13.558 12.285M73.97 188.45l4.82 22.35M61.844 226.156l-21.77-7M40.074 219.156L35.25 196.8M44.852 215.785l-3.86-17.883M35.25 196.8l16.95-15.355M52.2 181.445l-2.415-11.175" stroke-width="1.2" stroke="#000" stroke-miterlimit="10" fill="none"/><path d="M49.785 170.27l-2.41-11.176" stroke-width="1.2" stroke="#3cc" stroke-miterlimit="10" fill="none"/><path d="M52.2 181.445l21.77 7.004M52.727 187.27l17.418 5.6" stroke-width="1.2" stroke="#000" stroke-miterlimit="10" fill="none"/><path d="M44.375 153.594h6v11h-6zm0 0" fill="#fff"/><use xlink:href="#a" x="44.375" y="162.257" fill="#3cc"/><path d="M73.97 188.45l16.944-15.356M90.914 173.094l-1.227-11.367" stroke-width="1.2" stroke="#000" stroke-miterlimit="10" fill="none"/><path d="M89.688 161.727l-1.23-11.368M113.297 177.78l-11.192-2.343" stroke-width="1.2" stroke="#00f" stroke-miterlimit="10" fill="none"/><path d="M102.105 175.438l-11.19-2.344" stroke-width="1.2" stroke="#000" stroke-miterlimit="10" fill="none"/><path d="M112.164 172.047l-8.953-1.875" stroke-width="1.2" stroke="#00f" stroke-miterlimit="10" fill="none"/><path d="M103.21 170.172l-8.952-1.875" stroke-width="1.2" stroke="#000" stroke-miterlimit="10" fill="none"/><path d="M88.457 150.36l10.43-4.684" stroke-width="1.2" stroke="#00f" stroke-miterlimit="10" fill="none"/><path d="M98.887 145.676l10.433-4.684" stroke-width="1.2" stroke="#000" stroke-miterlimit="10" fill="none"/><path d="M81.457 144.86h14v11h-14zm0 0" fill="#fff"/><g fill="#00f"><use xlink:href="#b" x="81.457" y="153.522"/><use xlink:href="#c" x="88.435" y="153.522"/></g><path d="M109.32 140.992l15.352 16.95M106.867 146.3l12.28 13.56M109.32 140.992l4.684-22.383M124.672 157.94l-5.688 9.92" stroke-width="1.2" stroke="#000" stroke-miterlimit="10" fill="none"/><path d="M118.984 167.86l-5.687 9.92" stroke-width="1.2" stroke="#00f" stroke-miterlimit="10" fill="none"/><path d="M124.672 157.94l22.734-2.46" stroke-width="1.2" stroke="#000" stroke-miterlimit="10" fill="none"/><path d="M110.297 172.28h7v11h-7zm0 0" fill="#fff"/><use xlink:href="#b" x="110.297" y="180.944" fill="#00f"/><path d="M147.406 155.48l13.5 18.46M153.102 154.152l10.796 14.766M156.645 134.563l-9.24 20.917M160.906 173.94l22.735-2.46M183.64 171.48l8.52 7.625" stroke-width="1.2" stroke="#000" stroke-miterlimit="10" fill="none"/><path d="M192.16 179.105l8.524 7.625" stroke-width="1.2" stroke="#00f" stroke-miterlimit="10" fill="none"/><path d="M192.88 150.563l-9.24 20.917M187.03 150.48l-7.385 16.735" stroke-width="1.2" stroke="#000" stroke-miterlimit="10" fill="none"/><path d="M200.684 186.73l9.882-5.746" stroke-width="1.2" stroke="#00f" stroke-miterlimit="10" fill="none"/><path d="M210.566 180.984l9.887-5.746" stroke-width="1.2" stroke="#000" stroke-miterlimit="10" fill="none"/><path d="M193.684 181.23h14v11h-14zm0 0" fill="#fff"/><g fill="#00f"><use xlink:href="#b" x="193.684" y="189.894"/><use xlink:href="#c" x="200.661" y="189.894"/></g><path d="M220.453 175.238l-2.414-11.18" stroke-width="1.2" stroke="#000" stroke-miterlimit="10" fill="none"/><path d="M218.04 164.06l-2.41-11.177" stroke-width="1.2" stroke="#00f" stroke-miterlimit="10" fill="none"/><path d="M214.71 174.137l-1.93-8.942" stroke-width="1.2" stroke="#000" stroke-miterlimit="10" fill="none"/><path d="M212.78 165.195l-1.928-8.94" stroke-width="1.2" stroke="#00f" stroke-miterlimit="10" fill="none"/><path d="M220.453 175.238l10.457 4.617" stroke-width="1.2" stroke="#000" stroke-miterlimit="10" fill="none"/><path d="M230.91 179.855l10.46 4.622M215.63 152.883l-11.376-1.16" stroke-width="1.2" stroke="#00f" stroke-miterlimit="10" fill="none"/><path d="M204.254 151.723l-11.375-1.16" stroke-width="1.2" stroke="#000" stroke-miterlimit="10" fill="none"/><path d="M212.63 147.383h7v11h-7zm0 0" fill="#fff"/><use xlink:href="#b" x="212.629" y="156.046" fill="#00f"/><path d="M192.88 150.563l-13.497-18.46M179.383 132.102l-22.738 2.46M177.688 137.7l-18.192 1.964" stroke-width="1.2" stroke="#000" stroke-miterlimit="10" fill="none"/><path d="M241.37 184.477l1.232 11.367" stroke-width="1.2" stroke="#00f" stroke-miterlimit="10" fill="none"/><path d="M242.602 195.844l1.23 11.367" stroke-width="1.2" stroke="#000" stroke-miterlimit="10" fill="none"/><path d="M234.37 178.977h14v11h-14zm0 0" fill="#fff"/><g fill="#00f"><use xlink:href="#b" x="234.371" y="187.64"/><use xlink:href="#c" x="241.349" y="187.64"/></g><path d="M243.832 207.21l20.918 9.24M114.004 118.61l21.73-7.133M114.5 112.785l17.383-5.707M96.965 103.36l17.04 15.25M135.734 111.477l4.684-22.383M140.418 89.094l-17.04-15.25M135.125 91.578l-13.633-12.2M123.38 73.844l-21.728 7.133M101.652 80.977l-4.687 22.382M106.45 84.32l-3.75 17.907" stroke-width="1.2" stroke="#000" stroke-miterlimit="10" fill="none"/></g></svg>
